assets/1. 1-F/Fleur-de-lis/Color/Fleur-de-lis-color.svg

<svg width="100%" height="100%" viewBox="0 0 32 32" fill="none" xmlns="http://www.w3.org/2000/svg">
<g filter="url(#filter0_iii_18590_1922)">
<path d="M24.1412 12.9448C20.5787 12.4073 17.0995 15.3146 15.9693 16.3979L15.9693 25.5542C17.2506 26.4292 19.1958 27.8042 21.7036 26.2261C22.9297 25.2804 23.4361 24.0446 23.4842 22.9869C23.5045 22.5394 22.9755 22.4796 22.7107 22.8408C22.0731 23.7104 21.2867 24.1087 20.2583 23.8589C18.6953 23.4792 17.8911 21.6558 18.6333 19.9683C19.6255 18.0229 21.2739 16.7808 23.7349 17.2573C25.1473 17.7164 25.4958 19.1153 25.6318 20.3553C25.6921 20.9045 26.2614 21.2412 26.6988 20.9035C29.6888 18.5948 28.2089 13.687 24.1412 12.9448Z" fill="url(#paint0_radial_18590_1922)"/>
</g>
<g filter="url(#filter1_iii_18590_1922)">
<path d="M15.112 2.35577C15.5048 1.95821 16.1471 1.95974 16.538 2.35915L19.879 5.77296C20.807 6.6714 21.9361 8.1339 21.9361 9.9839C21.9361 12.8557 19.5881 15.0841 17.7274 16.3157C17.2769 16.6138 16.983 17.1068 16.983 17.647V22.0988C16.983 22.4442 17.1291 22.771 17.3669 23.0214C17.9678 23.6541 18.7408 24.6539 18.7408 25.6402C18.7408 27.4969 16.9497 29.127 16.1381 29.8178C15.9394 29.9868 15.6388 29.9815 15.4446 29.8073C14.2942 28.7754 12.8107 27.4351 12.8107 25.6011C12.8107 24.7066 13.6482 23.6414 14.2717 22.9833C14.5092 22.7326 14.6548 22.4052 14.6548 22.0598V17.608C14.6548 17.0678 14.3609 16.5748 13.9106 16.2763C12.0529 15.0446 9.71735 12.8164 9.71735 9.94484C9.71735 8.09484 10.8464 6.63234 11.7744 5.7339L15.112 2.35577Z" fill="url(#paint1_linear_18590_1922)"/>
</g>
<g filter="url(#filter2_iii_18590_1922)">
<path d="M15.112 2.35577C15.5048 1.95821 16.1471 1.95974 16.538 2.35915L19.879 5.77296C20.807 6.6714 21.9361 8.1339 21.9361 9.9839C21.9361 12.8557 19.5881 15.0841 17.7274 16.3157C17.2769 16.6138 16.983 17.1068 16.983 17.647V22.0988C16.983 22.4442 17.1291 22.771 17.3669 23.0214C17.9678 23.6541 18.7408 24.6539 18.7408 25.6402C18.7408 27.4969 16.9497 29.127 16.1381 29.8178C15.9394 29.9868 15.6388 29.9815 15.4446 29.8073C14.2942 28.7754 12.8107 27.4351 12.8107 25.6011C12.8107 24.7066 13.6482 23.6414 14.2717 22.9833C14.5092 22.7326 14.6548 22.4052 14.6548 22.0598V17.608C14.6548 17.0678 14.3609 16.5748 13.9106 16.2763C12.0529 15.0446 9.71735 12.8164 9.71735 9.94484C9.71735 8.09484 10.8464 6.63234 11.7744 5.7339L15.112 2.35577Z" fill="url(#paint2_linear_18590_1922)"/>
</g>
<g filter="url(#filter3_i_18590_1922)">
<rect x="12.2642" y="18.8979" width="7.125" height="2.23438" rx="1.11719" fill="url(#paint3_linear_18590_1922)"/>
<rect x="12.2642" y="18.8979" width="7.125" height="2.23438" rx="1.11719" fill="url(#paint4_radial_18590_1922)"/>
</g>
<g filter="url(#filter4_iii_18590_1922)">
<path d="M7.5123 12.9448C8.64768 12.7735 9.77459 12.9521 10.8197 13.31C11.6665 14.5728 12.8644 15.5826 13.9106 16.2763C14.3609 16.5748 14.6548 17.0678 14.6548 17.608V18.8979H13.3814C13.0708 18.8979 12.7899 19.0247 12.5874 19.2292C11.5734 17.7219 10.051 16.8444 7.91855 17.2573C6.50616 17.7164 6.1577 19.1153 6.02165 20.3553C5.96139 20.9045 5.39207 21.2412 4.95473 20.9035C1.96472 18.5948 3.44457 13.687 7.5123 12.9448Z" fill="url(#paint5_radial_18590_1922)"/>
<path d="M13.2962 21.1291C13.3546 22.4147 12.6005 23.5661 11.3952 23.8589C10.3668 24.1087 9.58042 23.7104 8.9428 22.8408C8.67795 22.4796 8.14895 22.5394 8.1693 22.9869C8.21742 24.0446 8.72381 25.2804 9.94986 26.2261C11.1068 26.9541 12.1439 27.0536 13.0514 26.8637C12.8999 26.4707 12.8107 26.0507 12.8107 25.6011C12.8107 24.7066 13.6482 23.6414 14.2717 22.9833C14.5092 22.7326 14.6548 22.4052 14.6548 22.0598V21.1323H13.3814C13.3527 21.1323 13.3243 21.1312 13.2962 21.1291Z" fill="url(#paint6_radial_18590_1922)"/>
</g>
<defs>
<filter id="filter0_iii_18590_1922" x="15.5693" y="12.4792" width="13.1087" height="14.8686" filterUnits="userSpaceOnUse" color-interpolation-filters="sRGB">
<feFlood flood-opacity="0" result="BackgroundImageFix"/>
<feBlend mode="normal" in="SourceGraphic" in2="BackgroundImageFix" result="shape"/>
<feColorMatrix in="SourceAlpha" type="matrix" values="0 0 0 0 0 0 0 0 0 0 0 0 0 0 0 0 0 0 127 0" result="hardAlpha"/>
<feOffset dx="0.4" dy="-0.4"/>
<feGaussianBlur stdDeviation="0.5"/>
<feComposite in2="hardAlpha" operator="arithmetic" k2="-1" k3="1"/>
<feColorMatrix type="matrix" values="0 0 0 0 0.890196 0 0 0 0 0.439216 0 0 0 0 0.207843 0 0 0 1 0"/>
<feBlend mode="normal" in2="shape" result="effect1_innerShadow_18590_1922"/>
<feColorMatrix in="SourceAlpha" type="matrix" values="0 0 0 0 0 0 0 0 0 0 0 0 0 0 0 0 0 0 127 0" result="hardAlpha"/>
<feOffset dy="-0.4"/>
<feGaussianBlur stdDeviation="0.375"/>
<feComposite in2="hardAlpha" operator="arithmetic" k2="-1" k3="1"/>
<feColorMatrix type="matrix" values="0 0 0 0 0.933333 0 0 0 0 0.454902 0 0 0 0 0.415686 0 0 0 1 0"/>
<feBlend mode="normal" in2="effect1_innerShadow_18590_1922" result="effect2_innerShadow_18590_1922"/>
<feColorMatrix in="SourceAlpha" type="matrix" values="0 0 0 0 0 0 0 0 0 0 0 0 0 0 0 0 0 0 127 0" result="hardAlpha"/>
<feOffset dx="-0.4" dy="0.4"/>
<feGaussianBlur stdDeviation="0.5"/>
<feComposite in2="hardAlpha" operator="arithmetic" k2="-1" k3="1"/>
<feColorMatrix type="matrix" values="0 0 0 0 1 0 0 0 0 0.811765 0 0 0 0 0.329412 0 0 0 1 0"/>
<feBlend mode="normal" in2="effect2_innerShadow_18590_1922" result="effect3_innerShadow_18590_1922"/>
</filter>
<filter id="filter1_iii_18590_1922" x="8.96735" y="2.05859" width="13.9688" height="27.8827" filterUnits="userSpaceOnUse" color-interpolation-filters="sRGB">
<feFlood flood-opacity="0" result="BackgroundImageFix"/>
<feBlend mode="normal" in="SourceGraphic" in2="BackgroundImageFix" result="shape"/>
<feColorMatrix in="SourceAlpha" type="matrix" values="0 0 0 0 0 0 0 0 0 0 0 0 0 0 0 0 0 0 127 0" result="hardAlpha"/>
<feOffset dx="-1"/>
<feGaussianBlur stdDeviation="0.375"/>
<feComposite in2="hardAlpha" operator="arithmetic" k2="-1" k3="1"/>
<feColorMatrix type="matrix" values="0 0 0 0 1 0 0 0 0 0.894118 0 0 0 0 0.360784 0 0 0 1 0"/>
<feBlend mode="normal" in2="shape" result="effect1_innerShadow_18590_1922"/>
<feColorMatrix in="SourceAlpha" type="matrix" values="0 0 0 0 0 0 0 0 0 0 0 0 0 0 0 0 0 0 127 0" result="hardAlpha"/>
<feOffset dx="1"/>
<feGaussianBlur stdDeviation="0.5"/>
<feComposite in2="hardAlpha" operator="arithmetic" k2="-1" k3="1"/>
<feColorMatrix type="matrix" values="0 0 0 0 0.960784 0 0 0 0 0.611765 0 0 0 0 0.192157 0 0 0 1 0"/>
<feBlend mode="normal" in2="effect1_innerShadow_18590_1922" result="effect2_innerShadow_18590_1922"/>
<feColorMatrix in="SourceAlpha" type="matrix" values="0 0 0 0 0 0 0 0 0 0 0 0 0 0 0 0 0 0 127 0" result="hardAlpha"/>
<feOffset dx="0.25"/>
<feGaussianBlur stdDeviation="0.25"/>
<feComposite in2="hardAlpha" operator="arithmetic" k2="-1" k3="1"/>
<feColorMatrix type="matrix" values="0 0 0 0 0.835294 0 0 0 0 0.635294 0 0 0 0 0.298039 0 0 0 1 0"/>
<feBlend mode="normal" in2="effect2_innerShadow_18590_1922" result="effect3_innerShadow_18590_1922"/>
</filter>
<filter id="filter2_iii_18590_1922" x="8.96735" y="2.05859" width="13.9688" height="27.8827" filterUnits="userSpaceOnUse" color-interpolation-filters="sRGB">
<feFlood flood-opacity="0" result="BackgroundImageFix"/>
<feBlend mode="normal" in="SourceGraphic" in2="BackgroundImageFix" result="shape"/>
<feColorMatrix in="SourceAlpha" type="matrix" values="0 0 0 0 0 0 0 0 0 0 0 0 0 0 0 0 0 0 127 0" result="hardAlpha"/>
<feOffset dx="-1"/>
<feGaussianBlur stdDeviation="0.375"/>
<feComposite in2="hardAlpha" operator="arithmetic" k2="-1" k3="1"/>
<feColorMatrix type="matrix" values="0 0 0 0 1 0 0 0 0 0.894118 0 0 0 0 0.360784 0 0 0 1 0"/>
<feBlend mode="normal" in2="shape" result="effect1_innerShadow_18590_1922"/>
<feColorMatrix in="SourceAlpha" type="matrix" values="0 0 0 0 0 0 0 0 0 0 0 0 0 0 0 0 0 0 127 0" result="hardAlpha"/>
<feOffset dx="1"/>
<feGaussianBlur stdDeviation="0.5"/>
<feComposite in2="hardAlpha" operator="arithmetic" k2="-1" k3="1"/>
<feColorMatrix type="matrix" values="0 0 0 0 0.960784 0 0 0 0 0.611765 0 0 0 0 0.192157 0 0 0 1 0"/>
<feBlend mode="normal" in2="effect1_innerShadow_18590_1922" result="effect2_innerShadow_18590_1922"/>
<feColorMatrix in="SourceAlpha" type="matrix" values="0 0 0 0 0 0 0 0 0 0 0 0 0 0 0 0 0 0 127 0" result="hardAlpha"/>
<feOffset dx="0.25"/>
<feGaussianBlur stdDeviation="0.25"/>
<feComposite in2="hardAlpha" operator="arithmetic" k2="-1" k3="1"/>
<feColorMatrix type="matrix" values="0 0 0 0 0.835294 0 0 0 0 0.635294 0 0 0 0 0.298039 0 0 0 1 0"/>
<feBlend mode="normal" in2="effect2_innerShadow_18590_1922" result="effect3_innerShadow_18590_1922"/>
</filter>
<filter id="filter3_i_18590_1922" x="12.2642" y="18.8979" width="7.375" height="2.23438" filterUnits="userSpaceOnUse" color-interpolation-filters="sRGB">
<feFlood flood-opacity="0" result="BackgroundImageFix"/>
<feBlend mode="normal" in="SourceGraphic" in2="BackgroundImageFix" result="shape"/>
<feColorMatrix in="SourceAlpha" type="matrix" values="0 0 0 0 0 0 0 0 0 0 0 0 0 0 0 0 0 0 127 0" result="hardAlpha"/>
<feOffset dx="0.25"/>
<feGaussianBlur stdDeviation="0.25"/>
<feComposite in2="hardAlpha" operator="arithmetic" k2="-1" k3="1"/>
<feColorMatrix type="matrix" values="0 0 0 0 0.886275 0 0 0 0 0.560784 0 0 0 0 0.337255 0 0 0 1 0"/>
<feBlend mode="normal" in2="shape" result="effect1_innerShadow_18590_1922"/>
</filter>
<filter id="filter4_iii_18590_1922" x="2.97555" y="12.4792" width="12.0793" height="14.8686" filterUnits="userSpaceOnUse" color-interpolation-filters="sRGB">
<feFlood flood-opacity="0" result="BackgroundImageFix"/>
<feBlend mode="normal" in="SourceGraphic" in2="BackgroundImageFix" result="shape"/>
<feColorMatrix in="SourceAlpha" type="matrix" values="0 0 0 0 0 0 0 0 0 0 0 0 0 0 0 0 0 0 127 0" result="hardAlpha"/>
<feOffset dx="-0.4" dy="0.4"/>
<feGaussianBlur stdDeviation="0.375"/>
<feComposite in2="hardAlpha" operator="arithmetic" k2="-1" k3="1"/>
<feColorMatrix type="matrix" values="0 0 0 0 0.890196 0 0 0 0 0.439216 0 0 0 0 0.207843 0 0 0 1 0"/>
<feBlend mode="normal" in2="shape" result="effect1_innerShadow_18590_1922"/>
<feColorMatrix in="SourceAlpha" type="matrix" values="0 0 0 0 0 0 0 0 0 0 0 0 0 0 0 0 0 0 127 0" result="hardAlpha"/>
<feOffset dy="-0.4"/>
<feGaussianBlur stdDeviation="0.375"/>
<feComposite in2="hardAlpha" operator="arithmetic" k2="-1" k3="1"/>
<feColorMatrix type="matrix" values="0 0 0 0 0.933333 0 0 0 0 0.454902 0 0 0 0 0.415686 0 0 0 1 0"/>
<feBlend mode="normal" in2="effect1_innerShadow_18590_1922" result="effect2_innerShadow_18590_1922"/>
<feColorMatrix in="SourceAlpha" type="matrix" values="0 0 0 0 0 0 0 0 0 0 0 0 0 0 0 0 0 0 127 0" result="hardAlpha"/>
<feOffset dx="0.4"/>
<feGaussianBlur stdDeviation="0.5"/>
<feComposite in2="hardAlpha" operator="arithmetic" k2="-1" k3="1"/>
<feColorMatrix type="matrix" values="0 0 0 0 0.854902 0 0 0 0 0.6 0 0 0 0 0.356863 0 0 0 1 0"/>
<feBlend mode="normal" in2="effect2_innerShadow_18590_1922" result="effect3_innerShadow_18590_1922"/>
</filter>
<radialGradient id="paint0_radial_18590_1922" cx="0" cy="0" r="1" gradientUnits="userSpaceOnUse" gradientTransform="translate(20.9801 21.4448) rotate(-39.6264) scale(7.34973 7.69921)">
<stop offset="0.36575" stop-color="#FFB045"/>
<stop offset="1" stop-color="#FA9840"/>
</radialGradient>
<linearGradient id="paint1_linear_18590_1922" x1="15.8267" y1="2.05859" x2="15.8267" y2="29.9413" gradientUnits="userSpaceOnUse">
<stop stop-color="#FFC945"/>
<stop offset="1" stop-color="#FFC44B"/>
</linearGradient>
<linearGradient id="paint2_linear_18590_1922" x1="15.8267" y1="2.05859" x2="15.8267" y2="29.9413" gradientUnits="userSpaceOnUse">
<stop stop-color="#FFC945"/>
<stop offset="1" stop-color="#FFC44B"/>
</linearGradient>
<linearGradient id="paint3_linear_18590_1922" x1="15.8267" y1="19.3198" x2="15.8267" y2="21.4136" gradientUnits="userSpaceOnUse">
<stop stop-color="#FFAC37"/>
<stop offset="1" stop-color="#F27E3D"/>
</linearGradient>
<radialGradient id="paint4_radial_18590_1922" cx="0" cy="0" r="1" gradientUnits="userSpaceOnUse" gradientTransform="translate(18.4673 19.7573) rotate(180) scale(3.65625 1.53125)">
<stop offset="0.102564" stop-color="#FFC851"/>
<stop offset="1" stop-color="#FFAA38" stop-opacity="0"/>
</radialGradient>
<radialGradient id="paint5_radial_18590_1922" cx="0" cy="0" r="1" gradientUnits="userSpaceOnUse" gradientTransform="translate(7.96735 21.4448) rotate(-42.1014) scale(6.99162 7.41671)">
<stop offset="0.36575" stop-color="#FFB045"/>
<stop offset="1" stop-color="#FA9840"/>
</radialGradient>
<radialGradient id="paint6_radial_18590_1922" cx="0" cy="0" r="1" gradientUnits="userSpaceOnUse" gradientTransform="translate(7.96735 21.4448) rotate(-42.1014) scale(6.99162 7.41671)">
<stop offset="0.36575" stop-color="#FFB045"/>
<stop offset="1" stop-color="#FA9840"/>
</radialGradient>
</defs>
</svg>

<svg width="100%" height="100%" viewBox="0 0 32 32" xmlns="http://www.w3.org/2000/svg"><g filter="url(#a)"><path fill="url(#b)" d="M24.141 12.945c-3.562-.538-7.041 2.37-8.172 3.453v9.156c1.282.875 3.227 2.25 5.735.672 1.226-.946 1.732-2.181 1.78-3.24.02-.447-.509-.506-.773-.145-.638.87-1.424 1.268-2.453 1.018-1.563-.38-2.367-2.203-1.625-3.89.992-1.946 2.64-3.188 5.102-2.712 1.412.46 1.76 1.858 1.897 3.098.06.55.63.886 1.067.549 2.99-2.31 1.51-7.217-2.558-7.96"/></g><g filter="url(#c)"><path fill="url(#d)" d="M15.112 2.356a1 1 0 0 1 1.426.003l3.341 3.414c.928.898 2.057 2.36 2.057 4.21 0 2.873-2.348 5.101-4.209 6.333-.45.298-.744.79-.744 1.331v4.452c0 .345.146.672.384.922.6.633 1.374 1.633 1.374 2.62 0 1.856-1.791 3.486-2.603 4.177a.53.53 0 0 1-.693-.01c-1.15-1.033-2.634-2.373-2.634-4.207 0-.894.837-1.96 1.46-2.618.238-.25.384-.578.384-.923v-4.452c0-.54-.294-1.033-.744-1.332-1.858-1.231-4.194-3.46-4.194-6.331 0-1.85 1.13-3.313 2.057-4.211z"/></g><g filter="url(#e)"><path fill="url(#f)" d="M15.112 2.356a1 1 0 0 1 1.426.003l3.341 3.414c.928.898 2.057 2.36 2.057 4.21 0 2.873-2.348 5.101-4.209 6.333-.45.298-.744.79-.744 1.331v4.452c0 .345.146.672.384.922.6.633 1.374 1.633 1.374 2.62 0 1.856-1.791 3.486-2.603 4.177a.53.53 0 0 1-.693-.01c-1.15-1.033-2.634-2.373-2.634-4.207 0-.894.837-1.96 1.46-2.618.238-.25.384-.578.384-.923v-4.452c0-.54-.294-1.033-.744-1.332-1.858-1.231-4.194-3.46-4.194-6.331 0-1.85 1.13-3.313 2.057-4.211z"/></g><g filter="url(#g)"><rect width="7.125" height="2.234" x="12.264" y="18.898" fill="url(#h)" rx="1.117"/><rect width="7.125" height="2.234" x="12.264" y="18.898" fill="url(#i)" rx="1.117"/></g><g filter="url(#j)"><path fill="url(#k)" d="M7.512 12.945c1.136-.171 2.263.007 3.308.365.846 1.263 2.044 2.273 3.09 2.966.45.299.745.792.745 1.332v1.29H13.38c-.31 0-.591.127-.794.331-1.014-1.507-2.536-2.385-4.668-1.972-1.413.46-1.761 1.858-1.897 3.098-.06.55-.63.886-1.067.549-2.99-2.31-1.51-7.217 2.557-7.96"/><path fill="url(#l)" d="M13.296 21.13c.059 1.285-.695 2.436-1.9 2.729-1.03.25-1.816-.149-2.453-1.018-.265-.361-.794-.302-.774.146.048 1.058.555 2.293 1.78 3.24 1.158.727 2.195.827 3.102.637a3.5 3.5 0 0 1-.24-1.263c0-.894.837-1.96 1.46-2.618.238-.25.384-.578.384-.923v-.928H13.38q-.043 0-.085-.003"/></g><defs><filter id="a" width="13.109" height="14.869" x="15.569" y="12.479" color-interpolation-filters="sRGB" filterUnits="userSpaceOnUse"><feFlood flood-opacity="0" result="BackgroundImageFix"/><feBlend in="SourceGraphic" in2="BackgroundImageFix" result="shape"/><feColorMatrix in="SourceAlpha" result="hardAlpha" values="0 0 0 0 0 0 0 0 0 0 0 0 0 0 0 0 0 0 127 0"/><feOffset dx=".4" dy="-.4"/><feGaussianBlur stdDeviation=".5"/><feComposite in2="hardAlpha" k2="-1" k3="1" operator="arithmetic"/><feColorMatrix values="0 0 0 0 0.890196 0 0 0 0 0.439216 0 0 0 0 0.207843 0 0 0 1 0"/><feBlend in2="shape" result="effect1_innerShadow_18590_1922"/><feColorMatrix in="SourceAlpha" result="hardAlpha" values="0 0 0 0 0 0 0 0 0 0 0 0 0 0 0 0 0 0 127 0"/><feOffset dy="-.4"/><feGaussianBlur stdDeviation=".375"/><feComposite in2="hardAlpha" k2="-1" k3="1" operator="arithmetic"/><feColorMatrix values="0 0 0 0 0.933333 0 0 0 0 0.454902 0 0 0 0 0.415686 0 0 0 1 0"/><feBlend in2="effect1_innerShadow_18590_1922" result="effect2_innerShadow_18590_1922"/><feColorMatrix in="SourceAlpha" result="hardAlpha" values="0 0 0 0 0 0 0 0 0 0 0 0 0 0 0 0 0 0 127 0"/><feOffset dx="-.4" dy=".4"/><feGaussianBlur stdDeviation=".5"/><feComposite in2="hardAlpha" k2="-1" k3="1" operator="arithmetic"/><feColorMatrix values="0 0 0 0 1 0 0 0 0 0.811765 0 0 0 0 0.329412 0 0 0 1 0"/><feBlend in2="effect2_innerShadow_18590_1922" result="effect3_innerShadow_18590_1922"/></filter><filter id="c" width="13.969" height="27.883" x="8.967" y="2.059" color-interpolation-filters="sRGB" filterUnits="userSpaceOnUse"><feFlood flood-opacity="0" result="BackgroundImageFix"/><feBlend in="SourceGraphic" in2="BackgroundImageFix" result="shape"/><feColorMatrix in="SourceAlpha" result="hardAlpha" values="0 0 0 0 0 0 0 0 0 0 0 0 0 0 0 0 0 0 127 0"/><feOffset dx="-1"/><feGaussianBlur stdDeviation=".375"/><feComposite in2="hardAlpha" k2="-1" k3="1" operator="arithmetic"/><feColorMatrix values="0 0 0 0 1 0 0 0 0 0.894118 0 0 0 0 0.360784 0 0 0 1 0"/><feBlend in2="shape" result="effect1_innerShadow_18590_1922"/><feColorMatrix in="SourceAlpha" result="hardAlpha" values="0 0 0 0 0 0 0 0 0 0 0 0 0 0 0 0 0 0 127 0"/><feOffset dx="1"/><feGaussianBlur stdDeviation=".5"/><feComposite in2="hardAlpha" k2="-1" k3="1" operator="arithmetic"/><feColorMatrix values="0 0 0 0 0.960784 0 0 0 0 0.611765 0 0 0 0 0.192157 0 0 0 1 0"/><feBlend in2="effect1_innerShadow_18590_1922" result="effect2_innerShadow_18590_1922"/><feColorMatrix in="SourceAlpha" result="hardAlpha" values="0 0 0 0 0 0 0 0 0 0 0 0 0 0 0 0 0 0 127 0"/><feOffset dx=".25"/><feGaussianBlur stdDeviation=".25"/><feComposite in2="hardAlpha" k2="-1" k3="1" operator="arithmetic"/><feColorMatrix values="0 0 0 0 0.835294 0 0 0 0 0.635294 0 0 0 0 0.298039 0 0 0 1 0"/><feBlend in2="effect2_innerShadow_18590_1922" result="effect3_innerShadow_18590_1922"/></filter><filter id="e" width="13.969" height="27.883" x="8.967" y="2.059" color-interpolation-filters="sRGB" filterUnits="userSpaceOnUse"><feFlood flood-opacity="0" result="BackgroundImageFix"/><feBlend in="SourceGraphic" in2="BackgroundImageFix" result="shape"/><feColorMatrix in="SourceAlpha" result="hardAlpha" values="0 0 0 0 0 0 0 0 0 0 0 0 0 0 0 0 0 0 127 0"/><feOffset dx="-1"/><feGaussianBlur stdDeviation=".375"/><feComposite in2="hardAlpha" k2="-1" k3="1" operator="arithmetic"/><feColorMatrix values="0 0 0 0 1 0 0 0 0 0.894118 0 0 0 0 0.360784 0 0 0 1 0"/><feBlend in2="shape" result="effect1_innerShadow_18590_1922"/><feColorMatrix in="SourceAlpha" result="hardAlpha" values="0 0 0 0 0 0 0 0 0 0 0 0 0 0 0 0 0 0 127 0"/><feOffset dx="1"/><feGaussianBlur stdDeviation=".5"/><feComposite in2="hardAlpha" k2="-1" k3="1" operator="arithmetic"/><feColorMatrix values="0 0 0 0 0.960784 0 0 0 0 0.611765 0 0 0 0 0.192157 0 0 0 1 0"/><feBlend in2="effect1_innerShadow_18590_1922" result="effect2_innerShadow_18590_1922"/><feColorMatrix in="SourceAlpha" result="hardAlpha" values="0 0 0 0 0 0 0 0 0 0 0 0 0 0 0 0 0 0 127 0"/><feOffset dx=".25"/><feGaussianBlur stdDeviation=".25"/><feComposite in2="hardAlpha" k2="-1" k3="1" operator="arithmetic"/><feColorMatrix values="0 0 0 0 0.835294 0 0 0 0 0.635294 0 0 0 0 0.298039 0 0 0 1 0"/><feBlend in2="effect2_innerShadow_18590_1922" result="effect3_innerShadow_18590_1922"/></filter><filter id="g" width="7.375" height="2.234" x="12.264" y="18.898" color-interpolation-filters="sRGB" filterUnits="userSpaceOnUse"><feFlood flood-opacity="0" result="BackgroundImageFix"/><feBlend in="SourceGraphic" in2="BackgroundImageFix" result="shape"/><feColorMatrix in="SourceAlpha" result="hardAlpha" values="0 0 0 0 0 0 0 0 0 0 0 0 0 0 0 0 0 0 127 0"/><feOffset dx=".25"/><feGaussianBlur stdDeviation=".25"/><feComposite in2="hardAlpha" k2="-1" k3="1" operator="arithmetic"/><feColorMatrix values="0 0 0 0 0.886275 0 0 0 0 0.560784 0 0 0 0 0.337255 0 0 0 1 0"/><feBlend in2="shape" result="effect1_innerShadow_18590_1922"/></filter><filter id="j" width="12.079" height="14.869" x="2.976" y="12.479" color-interpolation-filters="sRGB" filterUnits="userSpaceOnUse"><feFlood flood-opacity="0" result="BackgroundImageFix"/><feBlend in="SourceGraphic" in2="BackgroundImageFix" result="shape"/><feColorMatrix in="SourceAlpha" result="hardAlpha" values="0 0 0 0 0 0 0 0 0 0 0 0 0 0 0 0 0 0 127 0"/><feOffset dx="-.4" dy=".4"/><feGaussianBlur stdDeviation=".375"/><feComposite in2="hardAlpha" k2="-1" k3="1" operator="arithmetic"/><feColorMatrix values="0 0 0 0 0.890196 0 0 0 0 0.439216 0 0 0 0 0.207843 0 0 0 1 0"/><feBlend in2="shape" result="effect1_innerShadow_18590_1922"/><feColorMatrix in="SourceAlpha" result="hardAlpha" values="0 0 0 0 0 0 0 0 0 0 0 0 0 0 0 0 0 0 127 0"/><feOffset dy="-.4"/><feGaussianBlur stdDeviation=".375"/><feComposite in2="hardAlpha" k2="-1" k3="1" operator="arithmetic"/><feColorMatrix values="0 0 0 0 0.933333 0 0 0 0 0.454902 0 0 0 0 0.415686 0 0 0 1 0"/><feBlend in2="effect1_innerShadow_18590_1922" result="effect2_innerShadow_18590_1922"/><feColorMatrix in="SourceAlpha" result="hardAlpha" values="0 0 0 0 0 0 0 0 0 0 0 0 0 0 0 0 0 0 127 0"/><feOffset dx=".4"/><feGaussianBlur stdDeviation=".5"/><feComposite in2="hardAlpha" k2="-1" k3="1" operator="arithmetic"/><feColorMatrix values="0 0 0 0 0.854902 0 0 0 0 0.6 0 0 0 0 0.356863 0 0 0 1 0"/><feBlend in2="effect2_innerShadow_18590_1922" result="effect3_innerShadow_18590_1922"/></filter><radialGradient id="b" cx="0" cy="0" r="1" gradientTransform="matrix(5.6609 -4.6875 4.9104 5.93008 20.98 21.445)" gradientUnits="userSpaceOnUse"><stop offset=".366" stop-color="#FFB045"/><stop offset="1" stop-color="#FA9840"/></radialGradient><radialGradient id="i" cx="0" cy="0" r="1" gradientTransform="matrix(-3.65625 0 0 -1.53125 18.467 19.757)" gradientUnits="userSpaceOnUse"><stop offset=".103" stop-color="#FFC851"/><stop offset="1" stop-color="#FFAA38" stop-opacity="0"/></radialGradient><radialGradient id="k" cx="0" cy="0" r="1" gradientTransform="matrix(5.1875 -4.6875 4.9725 5.5029 7.967 21.445)" gradientUnits="userSpaceOnUse"><stop offset=".366" stop-color="#FFB045"/><stop offset="1" stop-color="#FA9840"/></radialGradient><radialGradient id="l" cx="0" cy="0" r="1" gradientTransform="matrix(5.1875 -4.6875 4.9725 5.5029 7.967 21.445)" gradientUnits="userSpaceOnUse"><stop offset=".366" stop-color="#FFB045"/><stop offset="1" stop-color="#FA9840"/></radialGradient><linearGradient id="d" x1="15.827" x2="15.827" y1="2.059" y2="29.941" gradientUnits="userSpaceOnUse"><stop stop-color="#FFC945"/><stop offset="1" stop-color="#FFC44B"/></linearGradient><linearGradient id="f" x1="15.827" x2="15.827" y1="2.059" y2="29.941" gradientUnits="userSpaceOnUse"><stop stop-color="#FFC945"/><stop offset="1" stop-color="#FFC44B"/></linearGradient><linearGradient id="h" x1="15.827" x2="15.827" y1="19.32" y2="21.414" gradientUnits="userSpaceOnUse"><stop stop-color="#FFAC37"/><stop offset="1" stop-color="#F27E3D"/></linearGradient></defs></svg>
